third_party/noto/noto_2/emoji_u1f6bd.svg

<svg enable-background="new 0 0 128 128" viewBox="0 0 128 128" xmlns="http://www.w3.org/2000/svg"><radialGradient id="b" cx="52.206" cy="37.552" r="101.49" gradientTransform="matrix(.9594 0 0 1 2.7083 0)" gradientUnits="userSpaceOnUse"><stop stop-color="#eee" offset=".4581"/><stop stop-color="#BDBDBD" offset="1"/></radialGradient><path d="m82.85 8.05 1.56 58.65-50.11 26.05-4.88 31.22 54.43 0.17v-18.6c0-8.44 6.42-14.75 13.06-19.02 9.19-5.91 15.15-16 16.01-27.22l4.22-51.26h-34.29z" fill="url(#b)"/><path d="m70.32 55.71v-47.71c0-2.2 1.8-4 4-4h0.57c2.2 0 4 1.8 4 4v47.71c0 2.2-1.8 4-4 4h-0.57c-2.2 0-4-1.8-4-4z" fill="#B0BEC5"/><g opacity=".2"><path d="m74.89 6c1.1 0 2 0.9 2 2v47.71c0 1.1-0.9 2-2 2h-0.57c-1.1 0-2-0.9-2-2v-47.71c0-1.1 0.9-2 2-2h0.57m0-2h-0.57c-2.2 0-4 1.8-4 4v47.71c0 2.2 1.8 4 4 4h0.57c2.2 0 4-1.8 4-4v-47.71c0-2.2-1.8-4-4-4z" fill="#424242"/></g><path d="m72.94 66.04h-59.19c-2.2 0-4-1.8-4-4v-0.57c0-2.2 1.8-4 4-4h59.19c2.2 0 4 1.8 4 4v0.57c0 2.2-1.8 4-4 4z" fill="#B0BEC5"/><g opacity=".2"><path d="m72.94 59.58c1.04 0 1.88 0.84 1.88 1.88v0.57c0 1.04-0.84 1.88-1.88 1.88h-59.19c-1.04 0-1.88-0.84-1.88-1.88v-0.57c0-1.04 0.84-1.88 1.88-1.88h59.19m0-2.12h-59.19c-2.2 0-4 1.8-4 4v0.57c0 2.2 1.8 4 4 4h59.19c2.2 0 4-1.8 4-4v-0.57c0-2.2-1.8-4-4-4z" fill="#424242"/></g><path d="m91.94 32.67 8.56 0.82c1.81 0.17 3.46-0.63 3.46-1.68v-1.63c0-1.05-1.65-1.85-3.46-1.68l-8.56 0.82c-1.43 0.14-2.48 0.85-2.48 1.68 0 0.82 1.05 1.53 2.48 1.67z" fill="#BDBDBD"/><g opacity=".2"><path d="m100.99 29.47c1.23 0 1.95 0.53 1.97 0.7v1.63c-0.01 0.17-0.73 0.7-1.97 0.7-0.13 0-0.26-0.01-0.4-0.02l-8.56-0.82c-1.04-0.1-1.56-0.54-1.58-0.68 0.02-0.15 0.54-0.59 1.58-0.68l8.56-0.82c0.14 0 0.27-0.01 0.4-0.01m0-1c-0.16 0-0.33 0.01-0.49 0.02l-8.56 0.82c-1.43 0.14-2.48 0.85-2.48 1.68s1.05 1.54 2.48 1.68l8.56 0.82c0.17 0.02 0.33 0.02 0.49 0.02 1.61 0 2.97-0.75 2.97-1.7v-1.63c0-0.96-1.36-1.71-2.97-1.71z" fill="#424242"/></g><ellipse cx="104.18" cy="31.09" rx="4.83" ry="5.04" fill="#BDBDBD"/><g opacity=".2"><path d="m104.18 27.05c2.11 0 3.83 1.81 3.83 4.04s-1.72 4.04-3.83 4.04-3.83-1.81-3.83-4.04 1.71-4.04 3.83-4.04m0-1c-2.67 0-4.83 2.26-4.83 5.04s2.16 5.04 4.83 5.04 4.83-2.26 4.83-5.04-2.16-5.04-4.83-5.04z" fill="#424242"/></g><radialGradient id="a" cx="37.5" cy="67" r="61.057" gradientTransform="matrix(.9908 0 0 1 .8282 0)" gradientUnits="userSpaceOnUse"><stop stop-color="#eee" offset=".3392"/><stop stop-color="#BDBDBD" offset=".9015"/></radialGradient><path d="m13.18 65.5c-2.54 0-4.4 2.67-3.83 5.45 4.06 19.62 20.55 34.3 40.27 34.3s36.2-14.68 40.27-34.3c0.58-2.78-1.28-5.45-3.83-5.45h-72.88z" fill="url(#a)"/><g opacity=".2"><path d="m113.88 11-3.96 48.06c-0.78 10.21-6.17 19.54-14.56 24.94-9.44 6.07-14.36 13.54-14.36 21.55v15.59l-48-0.15 2.93-19.02c0.21-1.32-0.5-2.61-1.71-3.18-11.11-5.22-19.31-15.86-21.92-28.45-0.14-0.66 0.07-0.97 0.32-1.27 0.18-0.21 0.36-0.07 0.56-0.07h71.2c0.81 0 1.58-0.58 2.15-1.16 0.56-0.58 0.87-1.51 0.85-2.32l-1.45-54.52h28.07m3.14-3zm0 0h-34.29l1.53 58h-71.2c-2.54 0-4.4 2.42-3.83 5.2 2.84 13.7 11.74 24.87 23.58 30.43l-3.43 22.41 54.5 0.11v-18.6c0-8.44 6.35-14.75 12.98-19.02 9.19-5.91 15.11-16.02 15.97-27.24l4.19-51.29z" fill="#424242"/></g><path d="m117.98 20.17h-36.93c-1.1 0-2-0.9-2-2v-12.22c0-1.1 0.9-2 2-2h36.93c1.1 0 2 0.9 2 2v12.22c0 1.11-0.89 2-2 2z" fill="#eee"/><g opacity=".2"><path d="m116.98 6.95v10.22h-34.93v-10.22h34.93m1-3h-36.93c-1.1 0-2 0.9-2 2v12.22c0 1.1 0.9 2 2 2h36.93c1.1 0 2-0.9 2-2v-12.22c0-1.1-0.89-2-2-2z" fill="#424242"/></g></svg>

<svg width="128" height="128" style="enable-background:new 0 0 128 128;" xmlns="http://www.w3.org/2000/svg" xmlns:xlink="http://www.w3.org/1999/xlink">
  <g id="Layer_3">
    <radialGradient id="SVGID_1_" cx="52.2057" cy="37.5517" gradientTransform="matrix(0.9594 0 0 1 2.7083 0)" gradientUnits="userSpaceOnUse" r="101.4883">
      <stop offset="0.4581" style="stop-color:#EEEEEE"/>
      <stop offset="1" style="stop-color:#BDBDBD"/>
    </radialGradient>
    <path d="M82.85,8.05l1.56,58.65L34.3,92.75l-4.88,31.22l54.43,0.17v-18.6 c0-8.44,6.42-14.75,13.06-19.02c9.19-5.91,15.15-16,16.01-27.22l4.22-51.26H82.85z" style="fill:url(#SVGID_1_);"/>
    <path d="M70.32,55.71V8c0-2.2,1.8-4,4-4h0.57c2.2,0,4,1.8,4,4v47.71c0,2.2-1.8,4-4,4h-0.57 C72.12,59.71,70.32,57.91,70.32,55.71z" style="fill:#B0BEC5;"/>
    <g style="opacity:0.2;">
      <path d="M74.89,6c1.1,0,2,0.9,2,2v47.71c0,1.1-0.9,2-2,2h-0.57c-1.1,0-2-0.9-2-2V8c0-1.1,0.9-2,2-2H74.89 M74.89,4h-0.57c-2.2,0-4,1.8-4,4v47.71c0,2.2,1.8,4,4,4h0.57c2.2,0,4-1.8,4-4V8C78.89,5.8,77.09,4,74.89,4L74.89,4z" style="fill:#424242;"/>
    </g>
    <path d="M72.94,66.04H13.75c-2.2,0-4-1.8-4-4v-0.57c0-2.2,1.8-4,4-4h59.19c2.2,0,4,1.8,4,4v0.57 C76.94,64.24,75.14,66.04,72.94,66.04z" style="fill:#B0BEC5;"/>
    <g style="opacity:0.2;">
      <path d="M72.94,59.58c1.04,0,1.88,0.84,1.88,1.88v0.57c0,1.04-0.84,1.88-1.88,1.88H13.75 c-1.04,0-1.88-0.84-1.88-1.88v-0.57c0-1.04,0.84-1.88,1.88-1.88H72.94 M72.94,57.46H13.75c-2.2,0-4,1.8-4,4v0.57c0,2.2,1.8,4,4,4 h59.19c2.2,0,4-1.8,4-4v-0.57C76.94,59.26,75.14,57.46,72.94,57.46L72.94,57.46z" style="fill:#424242;"/>
    </g>
    <path d="M91.94,32.67l8.56,0.82c1.81,0.17,3.46-0.63,3.46-1.68v-1.63c0-1.05-1.65-1.85-3.46-1.68l-8.56,0.82 c-1.43,0.14-2.48,0.85-2.48,1.68v0C89.46,31.82,90.51,32.53,91.94,32.67z" style="fill:#BDBDBD;"/>
    <g style="opacity:0.2;">
      <path d="M100.99,29.47c1.23,0,1.95,0.53,1.97,0.7v1.63c-0.01,0.17-0.73,0.7-1.97,0.7 c-0.13,0-0.26-0.01-0.4-0.02l-8.56-0.82c-1.04-0.1-1.56-0.54-1.58-0.68c0.02-0.15,0.54-0.59,1.58-0.68l8.56-0.82 C100.73,29.48,100.86,29.47,100.99,29.47 M100.99,28.47c-0.16,0-0.33,0.01-0.49,0.02l-8.56,0.82c-1.43,0.14-2.48,0.85-2.48,1.68 c0,0.83,1.05,1.54,2.48,1.68l8.56,0.82c0.17,0.02,0.33,0.02,0.49,0.02c1.61,0,2.97-0.75,2.97-1.7v-1.63 C103.96,29.22,102.6,28.47,100.99,28.47L100.99,28.47z" style="fill:#424242;"/>
    </g>
    <ellipse cx="104.18" cy="31.09" rx="4.83" ry="5.04" style="fill:#BDBDBD;"/>
    <g style="opacity:0.2;">
      <path d="M104.18,27.05c2.11,0,3.83,1.81,3.83,4.04s-1.72,4.04-3.83,4.04c-2.11,0-3.83-1.81-3.83-4.04 S102.06,27.05,104.18,27.05 M104.18,26.05c-2.67,0-4.83,2.26-4.83,5.04s2.16,5.04,4.83,5.04c2.67,0,4.83-2.26,4.83-5.04 S106.85,26.05,104.18,26.05L104.18,26.05z" style="fill:#424242;"/>
    </g>
    <radialGradient id="SVGID_2_" cx="37.5" cy="67" gradientTransform="matrix(0.9908 0 0 1 0.8282 0)" gradientUnits="userSpaceOnUse" r="61.0574">
      <stop offset="0.3392" style="stop-color:#EEEEEE"/>
      <stop offset="0.9015" style="stop-color:#BDBDBD"/>
    </radialGradient>
    <path d="M13.18,65.5c-2.54,0-4.4,2.67-3.83,5.45c4.06,19.62,20.55,34.3,40.27,34.3 s36.2-14.68,40.27-34.3c0.58-2.78-1.28-5.45-3.83-5.45H13.18z" style="fill:url(#SVGID_2_);"/>
    <g style="opacity:0.2;">
      <path d="M113.88,11l-3.96,48.06C109.14,69.27,103.75,78.6,95.36,84C85.92,90.07,81,97.54,81,105.55v15.59 l-48-0.15l2.93-19.02c0.21-1.32-0.5-2.61-1.71-3.18C23.11,93.57,14.91,82.93,12.3,70.34c-0.14-0.66,0.07-0.97,0.32-1.27 C12.8,68.86,12.98,69,13.18,69h71.2c0.81,0,1.58-0.58,2.15-1.16c0.56-0.58,0.87-1.51,0.85-2.32L85.93,11H114 M117.14,8L117.14,8 L117.14,8z M117.14,8H82.85l1.53,58h-71.2c-2.54,0-4.4,2.42-3.83,5.2c2.84,13.7,11.74,24.87,23.58,30.43l-3.43,22.41l54.5,0.11 v-18.6c0-8.44,6.35-14.75,12.98-19.02c9.19-5.91,15.11-16.02,15.97-27.24L117.14,8L117.14,8z" style="fill:#424242;"/>
    </g>
    <path d="M117.98,20.17H81.05c-1.1,0-2-0.9-2-2V5.95c0-1.1,0.9-2,2-2h36.93c1.1,0,2,0.9,2,2v12.22 C119.98,19.28,119.09,20.17,117.98,20.17z" style="fill:#EEEEEE;"/>
    <g style="opacity:0.2;">
      <path d="M116.98,6.95v10.22H82.05V6.95H116.98 M117.98,3.95H81.05c-1.1,0-2,0.9-2,2v12.22c0,1.1,0.9,2,2,2 h36.93c1.1,0,2-0.9,2-2V5.95C119.98,4.85,119.09,3.95,117.98,3.95L117.98,3.95z" style="fill:#424242;"/>
    </g>
  </g>
  <g id="Layer_2" style="display:none;">
    <g style="display:inline;">
      <g style="opacity:0.6;">
        <circle cx="64" cy="64" r="28" style="opacity:0.61;fill:none;stroke:#000000;stroke-width:0.2625;stroke-miterlimit:10;"/>
        <line style="opacity:0.61;fill:none;stroke:#000000;stroke-width:0.25;stroke-miterlimit:10;" x1="84" x2="84" y1="0" y2="128"/>
        <line style="opacity:0.61;fill:none;stroke:#000000;stroke-width:0.25;stroke-miterlimit:10;" x1="44" x2="44" y1="0" y2="128"/>
        <line style="opacity:0.61;fill:none;stroke:#000000;stroke-width:0.25;stroke-miterlimit:10;" x1="64" x2="64" y1="0" y2="128"/>
        <line style="opacity:0.61;fill:none;stroke:#000000;stroke-width:0.25;stroke-miterlimit:10;" x1="128" x2="0" y1="64" y2="64"/>
        <line style="opacity:0.61;fill:none;stroke:#000000;stroke-width:0.25;stroke-miterlimit:10;" x1="128" x2="0" y1="44" y2="44"/>
        <line style="opacity:0.61;fill:none;stroke:#000000;stroke-width:0.25;stroke-miterlimit:10;" x1="128" x2="0" y1="83.75" y2="83.75"/>
        <line style="opacity:0.61;fill:none;stroke:#000000;stroke-width:0.25;stroke-miterlimit:10;" x1="128" x2="0" y1="128" y2="0"/>
        <line style="opacity:0.61;fill:none;stroke:#000000;stroke-width:0.25;stroke-miterlimit:10;" x1="0" x2="128" y1="128" y2="0"/>
        <g style="opacity:0.61;">
          <path d="M64,4.26c32.94,0,59.74,26.8,59.74,59.74S96.94,123.74,64,123.74S4.26,96.94,4.26,64S31.06,4.26,64,4.26 M64,4 C30.86,4,4,30.86,4,64s26.86,60,60,60s60-26.86,60-60S97.14,4,64,4L64,4z"/>
        </g>
        <path d="M107.97,115.97H20.03 c-4.42,0-8.03-3.61-8.03-8.03V20.03c0-4.42,3.61-8.03,8.03-8.03h87.94c4.42,0,8.03,3.61,8.03,8.03v87.91 C116,112.36,112.39,115.97,107.97,115.97z" style="opacity:0.61;fill:none;stroke:#000000;stroke-width:0.2578;stroke-miterlimit:10;"/>
        <path d="M100,124H28c-4.4,0-8-3.6-8-8 V12c0-4.4,3.6-8,8-8h72c4.4,0,8,3.6,8,8v104C108,120.4,104.4,124,100,124z" style="opacity:0.61;fill:none;stroke:#000000;stroke-width:0.2628;stroke-miterlimit:10;"/>
        <path d="M113.77,108H14.23 C8.6,108,4,103.4,4,97.77V30.28c0-5.63,4.6-10.23,10.23-10.23h99.54c5.63,0,10.23,4.6,10.23,10.23v67.48 C124,103.4,119.4,108,113.77,108z" style="opacity:0.61;fill:none;stroke:#000000;stroke-width:0.2627;stroke-miterlimit:10;"/>
      </g>
      <g>
        <g style="opacity:0.2;">
          <defs>
            <rect id="SVGID_4_" height="128" style="opacity:0.2;" width="128" x="0" y="0"/>
          </defs>
          <clipPath id="SVGID_3_">
            <use style="overflow:visible;" xlink:href="#SVGID_4_"/>
          </clipPath>
          <g style="clip-path:url(#SVGID_3_);">
            <g>
              <line style="fill:none;stroke:#000000;stroke-width:0.25;stroke-miterlimit:10;" x1="-28" x2="-28" y1="160" y2="-32"/>
              <line style="fill:none;stroke:#000000;stroke-width:0.25;stroke-miterlimit:10;" x1="-24" x2="-24" y1="160" y2="-32"/>
              <line style="fill:none;stroke:#000000;stroke-width:0.25;stroke-miterlimit:10;" x1="-20" x2="-20" y1="160" y2="-32"/>
              <line style="fill:none;stroke:#000000;stroke-width:0.25;stroke-miterlimit:10;" x1="-16" x2="-16" y1="160" y2="-32"/>
              <line style="fill:none;stroke:#000000;stroke-width:0.25;stroke-miterlimit:10;" x1="-12" x2="-12" y1="160" y2="-32"/>
              <line style="fill:none;stroke:#000000;stroke-width:0.25;stroke-miterlimit:10;" x1="-8" x2="-8" y1="160" y2="-32"/>
              <line style="fill:none;stroke:#000000;stroke-width:0.25;stroke-miterlimit:10;" x1="-4" x2="-4" y1="160" y2="-32"/>
              <line style="fill:none;stroke:#000000;stroke-width:0.25;stroke-miterlimit:10;" x1="0" x2="0" y1="160" y2="-32"/>
              <line style="fill:none;stroke:#000000;stroke-width:0.25;stroke-miterlimit:10;" x1="4" x2="4" y1="160" y2="-32"/>
              <line style="fill:none;stroke:#000000;stroke-width:0.25;stroke-miterlimit:10;" x1="8" x2="8" y1="160" y2="-32"/>
              <line style="fill:none;stroke:#000000;stroke-width:0.25;stroke-miterlimit:10;" x1="12" x2="12" y1="160" y2="-32"/>
              <line style="fill:none;stroke:#000000;stroke-width:0.25;stroke-miterlimit:10;" x1="16" x2="16" y1="160" y2="-32"/>
              <line style="fill:none;stroke:#000000;stroke-width:0.25;stroke-miterlimit:10;" x1="20" x2="20" y1="160" y2="-32"/>
              <line style="fill:none;stroke:#000000;stroke-width:0.25;stroke-miterlimit:10;" x1="24" x2="24" y1="160" y2="-32"/>
              <line style="fill:none;stroke:#000000;stroke-width:0.25;stroke-miterlimit:10;" x1="28" x2="28" y1="160" y2="-32"/>
              <line style="fill:none;stroke:#000000;stroke-width:0.25;stroke-miterlimit:10;" x1="32" x2="32" y1="160" y2="-32"/>
              <line style="fill:none;stroke:#000000;stroke-width:0.25;stroke-miterlimit:10;" x1="36" x2="36" y1="160" y2="-32"/>
              <line style="fill:none;stroke:#000000;stroke-width:0.25;stroke-miterlimit:10;" x1="40" x2="40" y1="160" y2="-32"/>
              <line style="fill:none;stroke:#000000;stroke-width:0.25;stroke-miterlimit:10;" x1="44" x2="44" y1="160" y2="-32"/>
              <line style="fill:none;stroke:#000000;stroke-width:0.25;stroke-miterlimit:10;" x1="48" x2="48" y1="160" y2="-32"/>
              <line style="fill:none;stroke:#000000;stroke-width:0.25;stroke-miterlimit:10;" x1="52" x2="52" y1="160" y2="-32"/>
              <line style="fill:none;stroke:#000000;stroke-width:0.25;stroke-miterlimit:10;" x1="56" x2="56" y1="160" y2="-32"/>
              <line style="fill:none;stroke:#000000;stroke-width:0.25;stroke-miterlimit:10;" x1="60" x2="60" y1="160" y2="-32"/>
              <line style="fill:none;stroke:#000000;stroke-width:0.25;stroke-miterlimit:10;" x1="64" x2="64" y1="160" y2="-32"/>
              <line style="fill:none;stroke:#000000;stroke-width:0.25;stroke-miterlimit:10;" x1="68" x2="68" y1="160" y2="-32"/>
              <line style="fill:none;stroke:#000000;stroke-width:0.25;stroke-miterlimit:10;" x1="72" x2="72" y1="160" y2="-32"/>
              <line style="fill:none;stroke:#000000;stroke-width:0.25;stroke-miterlimit:10;" x1="76" x2="76" y1="160" y2="-32"/>
              <line style="fill:none;stroke:#000000;stroke-width:0.25;stroke-miterlimit:10;" x1="80" x2="80" y1="160" y2="-32"/>
              <line style="fill:none;stroke:#000000;stroke-width:0.25;stroke-miterlimit:10;" x1="84" x2="84" y1="160" y2="-32"/>
              <line style="fill:none;stroke:#000000;stroke-width:0.25;stroke-miterlimit:10;" x1="88" x2="88" y1="160" y2="-32"/>
              <line style="fill:none;stroke:#000000;stroke-width:0.25;stroke-miterlimit:10;" x1="92" x2="92" y1="160" y2="-32"/>
              <line style="fill:none;stroke:#000000;stroke-width:0.25;stroke-miterlimit:10;" x1="96" x2="96" y1="160" y2="-32"/>
              <line style="fill:none;stroke:#000000;stroke-width:0.25;stroke-miterlimit:10;" x1="100" x2="100" y1="160" y2="-32"/>
              <line style="fill:none;stroke:#000000;stroke-width:0.25;stroke-miterlimit:10;" x1="104" x2="104" y1="160" y2="-32"/>
              <line style="fill:none;stroke:#000000;stroke-width:0.25;stroke-miterlimit:10;" x1="108" x2="108" y1="160" y2="-32"/>
              <line style="fill:none;stroke:#000000;stroke-width:0.25;stroke-miterlimit:10;" x1="112" x2="112" y1="160" y2="-32"/>
              <line style="fill:none;stroke:#000000;stroke-width:0.25;stroke-miterlimit:10;" x1="116" x2="116" y1="160" y2="-32"/>
              <line style="fill:none;stroke:#000000;stroke-width:0.25;stroke-miterlimit:10;" x1="120" x2="120" y1="160" y2="-32"/>
              <line style="fill:none;stroke:#000000;stroke-width:0.25;stroke-miterlimit:10;" x1="124" x2="124" y1="160" y2="-32"/>
              <line style="fill:none;stroke:#000000;stroke-width:0.25;stroke-miterlimit:10;" x1="128" x2="128" y1="160" y2="-32"/>
              <line style="fill:none;stroke:#000000;stroke-width:0.25;stroke-miterlimit:10;" x1="132" x2="132" y1="160" y2="-32"/>
              <line style="fill:none;stroke:#000000;stroke-width:0.25;stroke-miterlimit:10;" x1="136" x2="136" y1="160" y2="-32"/>
              <line style="fill:none;stroke:#000000;stroke-width:0.25;stroke-miterlimit:10;" x1="137" x2="137" y1="166.05" y2="-25.95"/>
              <line style="fill:none;stroke:#000000;stroke-width:0.25;stroke-miterlimit:10;" x1="144" x2="144" y1="160" y2="-32"/>
              <line style="fill:none;stroke:#000000;stroke-width:0.25;stroke-miterlimit:10;" x1="148" x2="148" y1="160" y2="-32"/>
              <line style="fill:none;stroke:#000000;stroke-width:0.25;stroke-miterlimit:10;" x1="152" x2="152" y1="160" y2="-32"/>
              <line style="fill:none;stroke:#000000;stroke-width:0.25;stroke-miterlimit:10;" x1="156" x2="156" y1="160" y2="-32"/>
            </g>
            <g>
              <line style="fill:none;stroke:#000000;stroke-width:0.25;stroke-miterlimit:10;" x1="-32" x2="160" y1="-28" y2="-28"/>
              <line style="fill:none;stroke:#000000;stroke-width:0.25;stroke-miterlimit:10;" x1="-32" x2="160" y1="-24" y2="-24"/>
              <line style="fill:none;stroke:#000000;stroke-width:0.25;stroke-miterlimit:10;" x1="-32" x2="160" y1="-20" y2="-20"/>
              <line style="fill:none;stroke:#000000;stroke-width:0.25;stroke-miterlimit:10;" x1="-32" x2="160" y1="-16" y2="-16"/>
              <line style="fill:none;stroke:#000000;stroke-width:0.25;stroke-miterlimit:10;" x1="-32" x2="160" y1="-12" y2="-12"/>
              <line style="fill:none;stroke:#000000;stroke-width:0.25;stroke-miterlimit:10;" x1="-32" x2="160" y1="-8" y2="-8"/>
              <line style="fill:none;stroke:#000000;stroke-width:0.25;stroke-miterlimit:10;" x1="-32" x2="160" y1="-4" y2="-4"/>
              <line style="fill:none;stroke:#000000;stroke-width:0.25;stroke-miterlimit:10;" x1="-32" x2="160" y1="0" y2="0"/>
              <line style="fill:none;stroke:#000000;stroke-width:0.25;stroke-miterlimit:10;" x1="-32" x2="160" y1="4" y2="4"/>
              <line style="fill:none;stroke:#000000;stroke-width:0.25;stroke-miterlimit:10;" x1="-32" x2="160" y1="8" y2="8"/>
              <line style="fill:none;stroke:#000000;stroke-width:0.25;stroke-miterlimit:10;" x1="-32" x2="160" y1="12" y2="12"/>
              <line style="fill:none;stroke:#000000;stroke-width:0.25;stroke-miterlimit:10;" x1="-32" x2="160" y1="16" y2="16"/>
              <line style="fill:none;stroke:#000000;stroke-width:0.25;stroke-miterlimit:10;" x1="-32" x2="160" y1="20" y2="20"/>
              <line style="fill:none;stroke:#000000;stroke-width:0.25;stroke-miterlimit:10;" x1="-32" x2="160" y1="24" y2="24"/>
              <line style="fill:none;stroke:#000000;stroke-width:0.25;stroke-miterlimit:10;" x1="-32" x2="160" y1="28" y2="28"/>
              <line style="fill:none;stroke:#000000;stroke-width:0.25;stroke-miterlimit:10;" x1="-32" x2="160" y1="32" y2="32"/>
              <line style="fill:none;stroke:#000000;stroke-width:0.25;stroke-miterlimit:10;" x1="-32" x2="160" y1="36" y2="36"/>
              <line style="fill:none;stroke:#000000;stroke-width:0.25;stroke-miterlimit:10;" x1="-32" x2="160" y1="40" y2="40"/>
              <line style="fill:none;stroke:#000000;stroke-width:0.25;stroke-miterlimit:10;" x1="-32" x2="160" y1="44" y2="44"/>
              <line style="fill:none;stroke:#000000;stroke-width:0.25;stroke-miterlimit:10;" x1="-32" x2="160" y1="48" y2="48"/>
              <line style="fill:none;stroke:#000000;stroke-width:0.25;stroke-miterlimit:10;" x1="-32" x2="160" y1="52" y2="52"/>
              <line style="fill:none;stroke:#000000;stroke-width:0.25;stroke-miterlimit:10;" x1="-32" x2="160" y1="56" y2="56"/>
              <line style="fill:none;stroke:#000000;stroke-width:0.25;stroke-miterlimit:10;" x1="-32" x2="160" y1="60" y2="60"/>
              <line style="fill:none;stroke:#000000;stroke-width:0.25;stroke-miterlimit:10;" x1="-32" x2="160" y1="64" y2="64"/>
              <line style="fill:none;stroke:#000000;stroke-width:0.25;stroke-miterlimit:10;" x1="-32" x2="160" y1="68" y2="68"/>
              <line style="fill:none;stroke:#000000;stroke-width:0.25;stroke-miterlimit:10;" x1="-32" x2="160" y1="72" y2="72"/>
              <line style="fill:none;stroke:#000000;stroke-width:0.25;stroke-miterlimit:10;" x1="-32" x2="160" y1="76" y2="76"/>
              <line style="fill:none;stroke:#000000;stroke-width:0.25;stroke-miterlimit:10;" x1="-32" x2="160" y1="80" y2="80"/>
              <line style="fill:none;stroke:#000000;stroke-width:0.25;stroke-miterlimit:10;" x1="-32" x2="160" y1="84" y2="84"/>
              <line style="fill:none;stroke:#000000;stroke-width:0.25;stroke-miterlimit:10;" x1="-32" x2="160" y1="88" y2="88"/>
              <line style="fill:none;stroke:#000000;stroke-width:0.25;stroke-miterlimit:10;" x1="-32" x2="160" y1="92" y2="92"/>
              <line style="fill:none;stroke:#000000;stroke-width:0.25;stroke-miterlimit:10;" x1="-32" x2="160" y1="96" y2="96"/>
              <line style="fill:none;stroke:#000000;stroke-width:0.25;stroke-miterlimit:10;" x1="-32" x2="160" y1="100" y2="100"/>
              <line style="fill:none;stroke:#000000;stroke-width:0.25;stroke-miterlimit:10;" x1="-32" x2="160" y1="104" y2="104"/>
              <line style="fill:none;stroke:#000000;stroke-width:0.25;stroke-miterlimit:10;" x1="-32" x2="160" y1="108" y2="108"/>
              <line style="fill:none;stroke:#000000;stroke-width:0.25;stroke-miterlimit:10;" x1="-32" x2="160" y1="112" y2="112"/>
              <line style="fill:none;stroke:#000000;stroke-width:0.25;stroke-miterlimit:10;" x1="-32" x2="160" y1="116" y2="116"/>
              <line style="fill:none;stroke:#000000;stroke-width:0.25;stroke-miterlimit:10;" x1="-32" x2="160" y1="120" y2="120"/>
              <line style="fill:none;stroke:#000000;stroke-width:0.25;stroke-miterlimit:10;" x1="-32" x2="160" y1="124" y2="124"/>
              <line style="fill:none;stroke:#000000;stroke-width:0.25;stroke-miterlimit:10;" x1="-32" x2="160" y1="128" y2="128"/>
              <line style="fill:none;stroke:#000000;stroke-width:0.25;stroke-miterlimit:10;" x1="-32" x2="160" y1="132" y2="132"/>
              <line style="fill:none;stroke:#000000;stroke-width:0.25;stroke-miterlimit:10;" x1="-32" x2="160" y1="136" y2="136"/>
              <line style="fill:none;stroke:#000000;stroke-width:0.25;stroke-miterlimit:10;" x1="-32" x2="160" y1="140" y2="140"/>
              <line style="fill:none;stroke:#000000;stroke-width:0.25;stroke-miterlimit:10;" x1="-32" x2="160" y1="144" y2="144"/>
              <line style="fill:none;stroke:#000000;stroke-width:0.25;stroke-miterlimit:10;" x1="-32" x2="160" y1="148" y2="148"/>
              <line style="fill:none;stroke:#000000;stroke-width:0.25;stroke-miterlimit:10;" x1="-32" x2="160" y1="152" y2="152"/>
              <line style="fill:none;stroke:#000000;stroke-width:0.25;stroke-miterlimit:10;" x1="-32" x2="160" y1="156" y2="156"/>
            </g>
            <path d="M159.75-31.75v191.5h-191.5v-191.5H159.75 M160-32H-32v192h192V-32L160-32z"/>
          </g>
        </g>
        <g>
          <rect height="128" style="opacity:0.3;fill:#F44336;" width="4" x="0" y="0"/>
          <rect height="128" style="opacity:0.3;fill:#F44336;" width="4" x="124" y="0"/>
          <rect height="120" style="opacity:0.3;fill:#F44336;" transform="matrix(-1.836970e-16 1 -1 -1.836970e-16 66 -62)" width="4" x="62" y="-58"/>
          <rect height="120" style="opacity:0.3;fill:#F44336;" transform="matrix(-1.836970e-16 1 -1 -1.836970e-16 190 62)" width="4" x="62" y="66"/>
        </g>
      </g>
    </g>
  </g>
</svg>
